build/svg/cmd/sc_graphicfiltermosaic.svg

<svg xmlns="http://www.w3.org/2000/svg" viewBox="0 0 16 16"><path d="M4 12v2h2v-2zm6-2H8v2h2zm0-2v2h2V8zM6 6v2h2V6zm4-2v2h2V4zM8 2v2h2V2zM2 2v2h2V2z" fill="#fdbc4b"/><path d="M6 12v2h2v-2zm4-2v2h2v-2zM2 8v2h2V8zm4-4v2h2V4zm6 2h-2v2h2zm0-2v2h2V4zm-2-2v2h2V2z" fill="#2ecc71"/><path d="M12 12v2h2v-2zM2 12v2h2v-2zm10-4v2h2V8zm-4 2H6v2h2zm0-2v2h2V8zM4 6v2h2V6zM2 4v2h2V4zm4-2v2h2V2z" fill="#762572"/><path d="M10 12v2h2v-2zm2-2v2h2v-2zm-6 0H4v2h2zm0-2v2h2V8zm6-2v2h2V6zM2 6v2h2V6zm6-2v2h2V4zM4 2v2h2V2z" fill="#c7162b"/><path d="M8 12v2h2v-2zm-4-2H2v2h2zm0-2v2h2V8zm4-2v2h2V6zM4 4v2h2V4zm8-2v2h2V2z" fill="#e95420"/></svg>

<?xml version="1.0" encoding="UTF-8" standalone="no"?>
<svg
   xmlns:dc="http://purl.org/dc/elements/1.1/"
   xmlns:cc="http://creativecommons.org/ns#"
   xmlns:rdf="http://www.w3.org/1999/02/22-rdf-syntax-ns#"
   xmlns:svg="http://www.w3.org/2000/svg"
   xmlns="http://www.w3.org/2000/svg"
   xmlns:sodipodi="http://sodipodi.sourceforge.net/DTD/sodipodi-0.dtd"
   xmlns:inkscape="http://www.inkscape.org/namespaces/inkscape"
   viewBox="0 0 16 16"
   version="1.1"
   id="svg12"
   sodipodi:docname="sc_graphicfiltermosaic.svg"
   inkscape:version="0.92.4 (5da689c313, 2019-01-14)">
  <metadata
     id="metadata18">
    <rdf:RDF>
      <cc:Work
         rdf:about="">
        <dc:format>image/svg+xml</dc:format>
        <dc:type
           rdf:resource="http://purl.org/dc/dcmitype/StillImage" />
      </cc:Work>
    </rdf:RDF>
  </metadata>
  <defs
     id="defs16" />
  <sodipodi:namedview
     pagecolor="#ffffff"
     bordercolor="#666666"
     borderopacity="1"
     objecttolerance="10"
     gridtolerance="10"
     guidetolerance="10"
     inkscape:pageopacity="0"
     inkscape:pageshadow="2"
     inkscape:window-width="1920"
     inkscape:window-height="1011"
     id="namedview14"
     showgrid="true"
     inkscape:zoom="41.7193"
     inkscape:cx="5.4868179"
     inkscape:cy="5.1908455"
     inkscape:window-x="0"
     inkscape:window-y="32"
     inkscape:window-maximized="1"
     inkscape:current-layer="svg12">
    <inkscape:grid
       type="xygrid"
       id="grid896" />
  </sodipodi:namedview>
  <path
     id="path6"
     style="fill:#fdbc4b;fill-opacity:1"
     d="m 4,12 v 2 h 2 v -2 z m 6,-2 H 8 v 2 h 2 z m 0,-2 v 2 h 2 V 8 Z M 6,6 V 8 H 8 V 6 Z m 4,-2 v 2 h 2 V 4 Z M 8,2 v 2 h 2 V 2 Z M 2,2 V 4 H 4 V 2 Z" />
  <path
     id="path894"
     style="fill:#2ecc71;fill-opacity:1"
     d="m 6,12 v 2 h 2 v -2 z m 4,-2 v 2 h 2 V 10 Z M 2,8 v 2 H 4 V 8 Z M 6,4 V 6 H 8 V 4 Z m 6,2 h -2 v 2 h 2 z m 0,-2 v 2 h 2 V 4 Z M 10,2 v 2 h 2 V 2 Z" />
  <path
     id="path898"
     style="fill:#762572;fill-opacity:1"
     d="m 12,12 v 2 h 2 V 12 Z M 2,12 v 2 H 4 V 12 Z M 12,8 v 2 h 2 V 8 Z M 8,10 H 6 v 2 H 8 Z M 8,8 v 2 h 2 V 8 Z M 4,6 V 8 H 6 V 6 Z M 2,4 V 6 H 4 V 4 Z M 6,2 V 4 H 8 V 2 Z" />
  <path
     id="path900"
     style="fill:#c7162b;fill-opacity:1"
     d="m 10,12 v 2 h 2 v -2 z m 2,-2 v 2 h 2 V 10 Z M 6,10 H 4 v 2 H 6 Z M 6,8 v 2 H 8 V 8 Z m 6,-2 v 2 h 2 V 6 Z M 2,6 V 8 H 4 V 6 Z M 8,4 v 2 h 2 V 4 Z M 4,2 V 4 H 6 V 2 Z" />
  <path
     id="path902"
     style="fill:#e95420"
     d="m 8,12 v 2 h 2 V 12 Z M 4,10 H 2 v 2 H 4 Z M 4,8 v 2 H 6 V 8 Z M 8,6 v 2 h 2 V 6 Z M 4,4 V 6 H 6 V 4 Z m 8,-2 v 2 h 2 V 2 Z" />
</svg>
